www/facebook.svg

<?xml version="1.0" encoding="utf-8"?>
<!-- Generated by IcoMoon.io -->
<!DOCTYPE svg PUBLIC "-//W3C//DTD SVG 1.1//EN" "http://www.w3.org/Graphics/SVG/1.1/DTD/svg11.dtd">
<svg version="1.1" xmlns="http://www.w3.org/2000/svg" xmlns:xlink="http://www.w3.org/1999/xlink" viewBox="0 0 36 42">
<path fill="#000" d="M29.25 3q2.789 0 4.77 1.98t1.98 4.77v22.5q0 2.789-1.98 4.77t-4.77 1.98h-4.406v-13.945h4.664l0.703-5.437h-5.367v-3.469q0-1.312 0.551-1.969t2.145-0.656l2.859-0.023v-4.852q-1.477-0.211-4.172-0.211-3.187 0-5.098 1.875t-1.91 5.297v4.008h-4.688v5.437h4.688v13.945h-12.469q-2.789 0-4.77-1.98t-1.98-4.77v-22.5q0-2.789 1.98-4.77t4.77-1.98h22.5z"></path>
</svg>

<svg xmlns="http://www.w3.org/2000/svg" viewBox="0 0 36 42"><path d="M29.25 3q2.789 0 4.77 1.98T36 9.75v22.5q0 2.789-1.98 4.77T29.25 39h-4.406V25.055h4.664l.703-5.437h-5.367v-3.469q0-1.312.551-1.969t2.145-.656l2.859-.023V8.649q-1.477-.211-4.172-.211-3.187 0-5.098 1.875t-1.91 5.297v4.008h-4.688v5.437h4.688V39H6.75q-2.789 0-4.77-1.98T0 32.25V9.75q0-2.789 1.98-4.77T6.75 3h22.5z"/></svg>
